assets/2023/icons/rubyGems.svg

<svg width="16" height="16" viewBox="0 0 16 16" fill="none" xmlns="http://www.w3.org/2000/svg">
<path d="M14.5 5.16065V10.8394C14.5 11.3776 14.2116 11.8747 13.7442 12.1417L8.74421 14.9989C8.28306 15.2624 7.71694 15.2624 7.25579 14.9989L2.25579 12.1417C1.78843 11.8747 1.5 11.3776 1.5 10.8394V5.16065C1.5 4.62236 1.78843 4.12534 2.25579 3.85828L7.25579 1.00114C7.71694 0.737624 8.28306 0.737624 8.74421 1.00114L13.7442 3.85828C14.2116 4.12534 14.5 4.62236 14.5 5.16065Z" fill="#FFF7F7" stroke="#DB3B4B"/>
<path d="M7.9997 12.4109L3.55103 6.55316L5.5555 4.63844C5.64852 4.54959 5.77222 4.5 5.90086 4.5H10.0978C10.2269 4.5 10.3509 4.54988 10.444 4.63922L10.7883 4.28042L10.444 4.63922L12.4382 6.55271L7.9997 12.4109Z" stroke="#DB3B4B"/>
<path d="M12 6.5H4" stroke="#DB3B4B"/>
</svg>

<svg xmlns="http://www.w3.org/2000/svg" width="16" height="16" fill="none" viewBox="0 0 16 16"><path fill="#FFF7F7" stroke="#DB3B4B" d="M14.5 5.16v5.68a1.5 1.5 0 0 1-.756 1.302l-5 2.857a1.5 1.5 0 0 1-1.488 0l-5-2.857a1.5 1.5 0 0 1-.756-1.303V5.161a1.5 1.5 0 0 1 .756-1.303l5-2.857a1.5 1.5 0 0 1 1.488 0l5 2.857a1.5 1.5 0 0 1 .756 1.303Z"/><path stroke="#DB3B4B" d="M8 12.41 3.55 6.554l2.005-1.915A.5.5 0 0 1 5.9 4.5h4.197a.5.5 0 0 1 .346.14l.344-.36-.344.36 1.994 1.913zm4-5.91H4"/></svg>
